X:1
T:N° 7 Arie für Baß:  Als du auf dich genommen.
T:N° 7 Arie für Baß:  Als du auf dich genommen.
T:Georg Frideric Händel
T:Copyright © 2009 by the Choral Public Domain Library (http://www.cpdl.org) Edition may be freely distributed, duplicated, performed, or recorded.
T:Copyright © 2009 by the Choral Public Domain Library (http://www.cpdl.org) Edition may be freely distributed, duplicated, performed, or recorded.
T:Copyright © 2009 by the Choral Public Domain Library (http://www.cpdl.org) Edition may be freely distributed, duplicated, performed, or recorded.
T:Copyright © 2009 by the Choral Public Domain Library (http://www.cpdl.org) Edition may be freely distributed, duplicated, performed, or recorded.
T:Copyright © 2009 by the Choral Public Domain Library (http://www.cpdl.org) Edition may be freely distributed, duplicated, performed, or recorded.
T:Copyright © 2009 by the Choral Public Domain Library (http://www.cpdl.org) Edition may be freely distributed, duplicated, performed, or recorded.
T:Copyright © 2009 by the Choral Public Domain Library (http://www.cpdl.org) Edition may be freely distributed, duplicated, performed, or recorded.
C:Georg Frideric Händel
Z:Copyright © 2009 by the Choral Public Domain Library (http://www.cpdl.org)
Z:Edition may be freely distributed, duplicated, performed, or recorded.
%%score 1 { ( 2 4 ) | ( 3 5 ) }
L:1/8
M:3/8
K:A
V:1 bass nm="Voice" snm="Voice"
V:2 treble nm="Piano" snm="Pno."
V:4 treble 
V:3 bass 
V:5 bass 
V:1
"^Larghetto, e piano un poco." z3 | z3 | z3 | z3 | z3 | z3 | z3 | z3 | z3 | z3 | z3 | z3 | z3 | %13
w: |||||||||||||
w: |||||||||||||
"^Baß." z3 | z A,G, | A,B,C | DC z | z CB, | CB,A, | E3 | z3 | z z B, | ^A,B,E, | ^D,E,A, | G,A,D | %25
w: |Als du|auf dich ge-|nom- men|die Er-|lös- ung der|Welt,||hast|du nicht ver-|schmäht, _ _|_ _ _|
w: |When Thou|took- est up-|on Thee|to de-|li- * ver|Man,||Thou|didst not ab-|hor, _ _|_ _ _|
 CB,>C | A,>B,G,/A,/ | F,/G,<E,F,/ | ^D,2 B, | B,B,B, | B,3- | B,3- | (B,>A,G,/F,/) | E,/A,<F,E,/ | %34
w: |||* hast|du nicht ver-|schmäht|_||der * Mensch- heit|
w: |||* Thou|didst not ab-|hor|_||the _ Vir- gin's|
 E,3 | z3 | z3 | z3 | z3 | z3 | z3 | z3 | z E,^D, | E,F,G, | A,G, z | z3 | z E,G, | A,B,C | DC z | %49
w: Loos;||||||||als du|auf dich ge-|nom- men,||als du|auf dich ge-|nom- men|
w: womb;||||||||when Thou|took- est up-|on Thee,||when Thou|took- est up-|on Thee|
 z3 | z CB, | A,G,F, | C3 | z3 | z CB, | ^A,B,C | DB,=A, | G,A,B, | CA,G, | F,G,A, | B,G,F, | %61
w: |die Er-|lö- sung der|Welt,||* hast|du nicht ver-|schmäht _ _|_ _ _||||
w: |to de-|li- * ver|Man,||Thou _|didst not ab-|hor, _ _|_ _ _||||
 ^E,F,G, | A,/G,/ F,2- | F,2 ^B, | C2 =B, | A,G,F, | ^E,F,B, | A,3/2 G,/F, | F,2 C | ^B,CF, | %70
w: |||||* * der|Mensch- heit _|Loos, hast|du nicht ver-|
w: |||||* * the|Vir- gin's _|womb, Thou|didst not ab-|
 ^E,F,=B, | A,3/2 G,/F, | F,3 | z3 | z3 | z3 | z3 | z A,E, | F,G,A, | B,/4C/4D/C z | z A,G, | %81
w: * * der|Mensch- heit _|Loos;|||||als du|auf dich ge-|nom- * * men|die Er-|
w: hor _ the|Vir- gin's _|womb;|||||. Thou|took- est up-|on _ _ Thee|to de-|
 F,DC | B,3 | z3 | z z D | CD=G, | F,2 A,/^G,/ | G,2 B,/A,/ | A,2 C/B,/ | B,2 D/C/ | C3 | z3 | %92
w: lö- sung der|Welt,||hast|du nicht ver-|schmäht, _ _|_ _ _|||||
w: li- * ver|Man,||Thou|didst not ab-|hor, _ _|_ _ _|||||
 z z E, | ^D,E,A, | G,A,D | CB,A, | G,F,/E,/A,- | A,/D/ CB,/>A,/ | A,3- | A,2 ^D | EB,=D | CB,A, | %102
w: hast|du nicht ver-|schmäht _ _|_ _ _||* der Mensch- * heit|Loos,|_ hast|du nicht ver-|schmäht _ _|
w: Thou|didst not ab-|hor _ _|_ _ _||* the Vir- * gin's|womb,|_ Thou|didst not ab-|hor _ _|
 G,A,B, | E,3 | z z"^Adagio."[Q:1/4=60] D | C3 | (B,2 A,) | A,3 | z3 | z3 | z3 | z3 | z3 | z3 | %114
w: _ _ _||der|Mensch-|heit _|Loos.|||||||
w: _ _ _||the|Vir-|gin's _|womb.|||||||
 z3 | z3 | z3 | z3 |] %118
w: ||||
w: ||||
V:2
!mp!"^Larghetto, e piano un poco." z ([CEA][DG]) | ([EA][DGB][EAc]) |({Bc} [EBd][EAc]) z | z3 | %4
 z ([CEA][DG]) | ([EA][DGB][EAc]) | ([Bd][Ac])e | ([FA^d][Ge])[FA] | ([EG][EA])[DGd] | %9
 ([EAc][FAd])[=Gc=g] | ([Adf][EAe])[^Gd] | ([EAc][B,EB])[^DFA] | [B,E-G][EBd][EAc-] | c/B/ B>A | %14
 [CEA]2!p! [B,DG] | [A,EA][B,DG][CEA] | ([DB][CA])"^Str.".[ce] | ([Bd]c)[B,E] | E2 [^DA] | %19
 [EG] [Ge][Bd] | ([Ac][GB]A) | [EG]2 [B,F] | [E^Ae]3 | [FB^d][EBe][FAd] | [GBe][EA][=DG=d] | %25
 [EAc][EB][CGB] | [CFA][B,F][B,G] | [CF]3 | [^DF]2 [B,DF] | [B,E][A,^D][B,G] | F^D[DF] | %31
 [B,E][A,^DA][B,EG] | [B,F][B,^DF][B,EG] | ee^d | [B,EG][GB][Bfb] | ([e^a][^db])[ce] | %36
 ([FB^d][GBe])[=Ad=a] | [Beg][Aea][=DG=d] | [Ac][Be]^d | [GBe][Beg][ABf] | [GBg][FA^d][EBe] | %41
 [EA]F>E | [G,E]2 [A,^D] | [B,E][A,^D][G,B,E] | [A,B,F]"^Viol."[G,B,E][gb] | ([fa][eg]).[GB] | %46
 ([FA][EG])[B,EG] | [A,EA][B,DG]"^Viol."[CEA] | [DEB][CEA]"^Viol."[ce] | ([Bd][Ac])[CE] | %50
 ([B,D]C)[B,E] | AGF | z"^Viol." [^Ec][GB] | [CA][B,G][A,F] | [G,^E] [CG][B,E] | [C^A][FB][EA] | %56
 [DFB]3 | [GB][EA][DG] | [CEA]3 | [FA][DG][CF] | [B,EB]2 [DF] | (^EF)[B,EG] |"^Str." [FA]2 [Gc] | %63
 (^Bc)F | G2 G |"^Cemb." [A,C]3 | ([^EG]F)[DF] | [A,CF]2 [G,C^E] | [A,CF]2 [CG] | [^DF]3 | %70
 ^E[CF][B,F] | F2 [G,C^E] | [A,CF]2!mf!"^Str." [Acf] | [G^e][Ff][=EB] | [F^A][FB][EAe] | %75
 [FB^d][GBe][^DA] | [B,EG][CEA][=DG=d] |!p! [EAc]2"^Cemb." [EAe] | A[GB][Ac] | %79
 [DGd][EAc]"^Viol."[EA] | [GB]/4[Ac]/4[Bd]/[Ac][EA] | [FA][DG][CEA] | [EGB]2"^Str." [EBe] | %83
 [FA^d][Ge][FA] | [EG][EA][=DG] | [CEA][A,DA][=G,C=G] | [A,DF]2 [A,EA] | [B,DG]2 [B,EG] | %88
 [A,EA]2 [CFA] | [DFAB]2 [EGB] | [EAc]2"^Str." [Aea] | ([Bdg][ca])[EBd] | ([Bd][Ac])!p![B,E] | %93
 [A,^DF][B,EG][B,F] | [B,EG][EA][=D^G] | [CEA][B,E][A,^DF] | [B,EG]2 [A,-EA-] | [A,DA][CEA][B,EG] | %98
 [CEA] [Ec][GBe] | [A^d][Ge][FA] | G2 B | EDC | B,2 B,- | B,A,G, | A,2!p! [A,DA] | [A,CA]3 | %106
 [B,DEG]3 | [CEA]2!mf!"^a tempo." [Aea] | [dg][ca][Bd] | [Ac]2 [EBe] | [FA^d][Ge][FA] | [EG][EA]D | %112
 CD[C=G] | [DF][CEA][D^Gd] | [EAc][Be][A^da] | [Beg][GBe][EAc-] | c/B/ B>A | [CEA]3 |] %118
V:3
 z A,B, | CB,A, | G,A, z | z3 | z A,B, | CB,A, | G,A,G, | F,[E,B,][^D,B,] | [E,B,]CB, | A,F,E, | %10
 D,C,[B,,B,] | A,,G,,F,, | E,,G,A, | D,E,E,, | [A,,,A,,]2"^Cemb." B,, | C,B,,A,, | G,,A,, x | %17
 z [A,E]G, | A,G,F, | E,2 z | z3 | z!p! E,^D, | C,3 | B,,G,,F,, | E,,C,B,, | A,,G,,E, | F,^D,E, | %27
 A,,C,A,, | B,,B,A, | G,F,E, | ^D,B,,A,, | G,,F,,E,, | ^D,B,,E, | C,/A,,/ B,,2 | E,E"^Str."^D | %35
 [CE][B,F][^A,F] | B,G,F, | E,C,B,, | A,,G,,F,, | E,,E,^D, | E,F,G, | A,B,B,, | %42
 E,!p!E,,"^Cemb."F,, | G,,F,,E,, | ^D,E, z | z3 | z"^Cemb." E,=D, | C,B,,A,, | G,,A,, z | z3 | %50
 z"^Cemb." A,G, | F,E,D, | [C,G,]3 | z3 | C,"^Cemb."!p! ^E,C, | F,D,C, | B,,C,D, | E,C,B,, | %58
 A,,B,,C, | D,B,,A,, | G,,A,,B,, | C,A,,G,, | F,,F,=E, | ^D,3 | [C,G,]3 | [C,F,]3 | B,,A,,B,, | %67
 C,2 C,, | F,,F,E, | ^D,3 | [C,G,]A,,=D, | C,B,,C, | F,,A,,F,, | C2 B, | [F,C]DC | B,G,F, | %76
 E,C,B,, | A,, A,C, | D,2 C, | B,,A,, z | z"^Cemb." A,,C, | D,B,,A,, | E,F,G, | F,[E,B,][^D,B,] | %84
 [E,B,]C,"^Cemb."B,, | A,,F,E, | D,A,,C, | B,,E,D, | C,F,E, | D,B,,E, | A,2 C | B,[A,E]G, | %92
 A,A,,"^Cemb."G,, | F,,E,,^D, | E,C,B,, | A,,G,,F,, | E,,D,C, | F,E,E,, | A,,"^Str."A,G, | F,3 | %100
 [E,B,]3 | A,3 | G,2 G, | E,3 | z z"^Cemb." [F,,F,] | [E,,E,]3 | [E,,,E,,]3 | [A,,,A,,]2"^Str." C | %108
 [B,D][A,E][G,E] | [A,E]2 G, | F,[E,B,][^D,B,] | [E,B,][C,A,][B,,G,] | A,2 =G, | [D,A,]C,B,, | %114
 A,,G,,F,, | E,,G,,A,, | D,E,E,, | [A,,,A,,]3 |] %118
V:4
 x3 | x3 | x3 | x3 | x3 | x3 | E2 [EB] | x3 | x3 | x3 | x3 | x3 | x3 | [FA][EA][DG] | x3 | x3 | %16
 E2 E | GA x | CB,A, | B,[I:staff +1] B,[I:staff -1]G | E2 F | x3 | x3 | x3 | x3 | x3 | x3 | x3 | %28
 x3 | x3 | B,2 B, | x3 | x3 | A/c/ [FB]2 | x3 | x3 | x3 | x3 | E2 [FA] | x3 | x3 | C^DA, | x3 | %43
 x3 | x3 | x3 | x3 | x3 | x3 | x3 | x3 | C2 D | x3 | x3 | x3 | x3 | x3 | x3 | x3 | x3 | x x2 | %61
 C2 x | C3 | [^DF]2 [^B,D] | F ^E2 | x3 | C2 B, | x3 | x3 | x3 | x3 | CD x | x3 | x3 | x3 | x3 | %76
 x3 | x3 | F2 E | x3 | x3 | x3 | x3 | x3 | x3 | x3 | x3 | x3 | x3 | x3 | x3 | x3 | E2 x | x3 | x3 | %95
 x3 | x3 | x3 | x3 | x3 | E3 | x3 | x3 | x3 | x3 | x3 | x3 | x3 | x3 | x3 | x3 | x3 | x3 | x3 | %114
 x3 | x3 | [FA][EA][B,EG] | x3 |] %118
V:5
 x3 | x3 | x3 | x3 | x3 | x3 | x3 | x3 | x3 | x3 | x3 | x3 | x3 | x3 | x3 | x3 | x3 | x3 | x3 | %19
 x3 | x3 | x3 | x3 | x3 | x3 | x3 | x3 | x3 | x3 | x3 | x3 | x3 | x3 | x3 | x3 | x3 | x3 | x3 | %38
 x3 | x3 | x3 | x3 | x3 | x3 | x3 | x3 | x3 | x3 | x3 | x3 | x3 | x3 | x3 | x3 | x3 | x3 | x3 | %57
 x3 | x3 | x3 | x3 | x3 | x3 | x3 | x3 | x3 | x3 | x3 | x3 | x3 | x3 | x3 | x3 | C,A,=G, | x3 | %75
 x3 | x3 | x3 | x3 | x3 | x3 | x3 | x3 | x3 | x3 | x3 | x3 | x3 | x3 | x3 | x3 | x3 | x3 | x3 | %94
 x3 | x3 | x3 | x3 | x3 | x3 | x3 | E,3- | E,2 D, | C,3 | x3 | x3 | x3 | x3 | x3 | x3 | x3 | x3 | %112
 A,,F,E, | x3 | x3 | x3 | x3 | x3 |] %118

